Obsidian-SemiLight/actions/24s/sort-presence.svg

<svg viewBox="0 0 24 24" xmlns="http://www.w3.org/2000/svg"><path d="m9 5v1h12v-1zm0 2v1h5v-1zm0 4v1h12v-1zm0 2v1h6v-1zm0 4v1h12v-1zm0 2v1h9v-1z" fill="#4d4d4d"/><path d="m6.5 5c-.82842 0-1.49999.67157-1.5 1.5.00001.82843.67158 1.5 1.5 1.5s1.49999-.67157 1.5-1.5c-.00001-.82843-.67158-1.5-1.5-1.5zm0 6c-.82843 0-1.5.67157-1.5 1.5s.67157 1.5 1.5 1.5 1.5-.67157 1.5-1.5-.67157-1.5-1.5-1.5z" fill="#27ae60"/><path d="m6.5 17c-.82843 0-1.5.67157-1.5 1.5s.67157 1.5 1.5 1.5 1.5-.67157 1.5-1.5-.67157-1.5-1.5-1.5zm12.5 3v1h2v-1z" fill="#da4453"/></svg>

<svg xmlns="http://www.w3.org/2000/svg" viewBox="0 0 24 24">
  <defs id="defs3051">
    <style type="text/css" id="current-color-scheme">
      .ColorScheme-Text {
        color:#4d4d4d;
      }
      </style>
  </defs>
 <path 
    style="fill:currentColor;fill-opacity:1;stroke:none" 
	d="M 9 5 L 9 6 L 21 6 L 21 5 L 9 5 z M 9 7 L 9 8 L 14 8 L 14 7 L 9 7 z M 9 11 L 9 12 L 21 12 L 21 11 L 9 11 z M 9 13 L 9 14 L 15 14 L 15 13 L 9 13 z M 9 17 L 9 18 L 21 18 L 21 17 L 9 17 z M 9 19 L 9 20 L 18 20 L 18 19 L 9 19 z "
    class="ColorScheme-Text"
    />
  <path
     style="opacity:1;fill:#27ae60;fill-opacity:1;stroke:none"
     d="M 6.5 5 C 5.67158 5 5.00001 5.67157 5 6.5 C 5.00001 7.32843 5.67158 8 6.5 8 C 7.32842 8 7.99999 7.32843 8 6.5 C 7.99999 5.67157 7.32842 5 6.5 5 z M 6.5 11 C 5.67157 11 5 11.67157 5 12.5 C 5 13.32843 5.67157 14 6.5 14 C 7.32843 14 8 13.32843 8 12.5 C 8 11.67157 7.32843 11 6.5 11 z "
     id="path10" />
  <path
     style="opacity:1;fill:#da4453;fill-opacity:1;stroke:none"
     d="M 6.5 17 C 5.67157 17 5 17.67157 5 18.5 C 5 19.32843 5.67157 20 6.5 20 C 7.32843 20 8 19.32843 8 18.5 C 8 17.67157 7.32843 17 6.5 17 z M 19 20 L 19 21 L 21 21 L 21 20 L 19 20 z "
     id="path12" />
</svg>
